Catalina-light/actions/22/office-chart-area.svg

<svg viewBox="0 0 22 22" xmlns="http://www.w3.org/2000/svg">
<defs>
<style id="current-color-scheme" type="text/css">.ColorScheme-Text {
        color:#4d4d4d;
      }</style>
</defs>
<path class="ColorScheme-Text" d="m4 3v14h-1v1h1v1h1v-1h14v-1h-0.29297l-3.5762-3.5762-0.003906 0.003906-0.005859-0.003906-2.123 2.123-4.123-4.123h-3.875v-1.4238h3.875l4.123-4.123 2.123 2.123 0.005859-0.0039062 0.003906 0.0039062 3.8691-3.8691-0.70703-0.70703-3.166 3.166-2.127-2.125-0.001953 0.0019531-0.001953-0.0019531-1.5273 1.5273h-6.4688v-2.9922h-1zm1 3h6.4609l-3 3h-3.4609v-3zm0 6.4238h3.4609l3 3h-6.4609v-3zm10.127 2.4102 2.166 2.166h-12.293v-1.5684h6.4688l1.5273 1.5273 0.001953-0.001953 0.001953 0.001953 2.127-2.125z" fill="currentColor"/>
<path class="ColorScheme-Text" d="m18.934 4.0645 0.066406 0.066406v-0.0039063l-0.066406-0.0625zm0.066406 0.066406-3.8691 3.8691-0.003906-0.0039062-0.005859 0.0039062-2.123-2.123-4.123 4.123h-3.875v1.4238h3.875l4.123 4.123 2.123-2.123 0.005859 0.003906 0.003906-0.003906 3.5762 3.5762h0.29297v-12.869zm-14 8.293v3h6.4609l-3-3h-3.4609zm10.127 2.4102-2.127 2.125-0.001953-0.001953-0.001953 0.001953-1.5273-1.5273h-6.4688v1.5684h5l2-0.007812 0.007812 0.007812h0.00586l1.9922-0.007812 3.2852 0.005859-2.1641-2.1641z" fill="currentColor" fill-opacity=".5"/>
</svg>

<svg xmlns="http://www.w3.org/2000/svg" viewBox="0 0 22 22">
  <defs id="defs3051">
    <style type="text/css" id="current-color-scheme">
      .ColorScheme-Text {
        color:#4d4d4d;
      }
      </style>
  </defs>
 <path 
     style="fill:currentColor;fill-opacity:1;stroke:none" 
     d="M 4 3 L 4 9 L 4 10 L 4 15 L 4 16 L 4 17 L 3 17 L 3 18 L 4 18 L 4 19 L 5 19 L 5 18 L 18.292969 18 L 19 18 L 19 17.292969 L 19 17 L 18.707031 17 L 17.958984 16.251953 L 17.130859 15.423828 L 15.130859 13.423828 L 15.126953 13.427734 L 15.121094 13.423828 L 12.998047 15.546875 L 11.703125 14.251953 L 10.875 13.423828 L 8.875 11.423828 L 8.8730469 11.423828 L 7 11.423828 L 6 11.423828 L 5 11.423828 L 5 11 L 5 10 L 6 10 L 7 10 L 8.8730469 10 L 8.875 10 L 10.875 8 L 11.703125 7.171875 L 12.998047 5.8769531 L 15.121094 8 L 15.126953 7.9960938 L 15.130859 8 L 17.130859 6 L 17.958984 5.171875 L 19 4.1308594 L 18.292969 3.4238281 L 17.251953 4.4648438 L 16.423828 5.2929688 L 15.126953 6.5898438 L 13 4.4648438 L 12.998047 4.4667969 L 12.996094 4.4648438 L 11.46875 5.9921875 L 5 5.9921875 L 5 5 L 5 3 L 4 3 z M 5 6 L 11.460938 6 L 10.996094 6.4648438 L 10.167969 7.2929688 L 8.4609375 9 L 7 9 L 6 9 L 5 9 L 5 6 z M 5 12.423828 L 6 12.423828 L 7 12.423828 L 8.4609375 12.423828 L 10.167969 14.130859 L 10.996094 14.958984 L 11.460938 15.423828 L 5 15.423828 L 5 15 L 5 12.423828 z M 15.126953 14.833984 L 16.423828 16.130859 L 17.251953 16.958984 L 17.292969 17 L 5 17 L 5 16 L 5 15.431641 L 11.46875 15.431641 L 12.996094 16.958984 L 12.998047 16.957031 L 13 16.958984 L 15.126953 14.833984 z "
     class="ColorScheme-Text"
     />
 <path 
     style="fill:currentColor;fill-opacity:0.5;stroke:none" 
     d="M 18.933594 4.0644531 L 19 4.1308594 L 19 4.1269531 L 18.933594 4.0644531 z M 19 4.1308594 L 17.958984 5.171875 L 17.130859 6 L 15.130859 8 L 15.126953 7.9960938 L 15.121094 8 L 12.998047 5.8769531 L 11.703125 7.171875 L 10.875 8 L 8.875 10 L 8.8730469 10 L 7 10 L 6 10 L 5 10 L 5 11 L 5 11.423828 L 6 11.423828 L 7 11.423828 L 8.8730469 11.423828 L 8.875 11.423828 L 10.875 13.423828 L 11.703125 14.251953 L 12.998047 15.546875 L 15.121094 13.423828 L 15.126953 13.427734 L 15.130859 13.423828 L 17.130859 15.423828 L 17.958984 16.251953 L 18.707031 17 L 19 17 L 19 4.1308594 z M 5 12.423828 L 5 15 L 5 15.423828 L 11.460938 15.423828 L 10.996094 14.958984 L 10.167969 14.130859 L 8.4609375 12.423828 L 7 12.423828 L 6 12.423828 L 5 12.423828 z M 15.126953 14.833984 L 13 16.958984 L 12.998047 16.957031 L 12.996094 16.958984 L 11.46875 15.431641 L 5 15.431641 L 5 17 L 10 17 L 12 16.992188 L 12.007812 17 L 12.013672 17 L 14.005859 16.992188 L 17.291016 16.998047 L 17.251953 16.958984 L 16.423828 16.130859 L 15.126953 14.833984 z "
     class="ColorScheme-Text"
     />
</svg>
